X:1
T:G Major Stephen Jenks, 1805
T:Anonymous (S. Jenks?)
T:Sweet Farewell
T:Treble-Tenor-Bass from Jenks' Delights of Harmony , 1805; Counter by B. C. Johnston, 2016.
%%score [ 1 2 3 4 ]
L:1/8
Q:1/4=100
M:2/4
K:G
V:1 treble nm="Treble" snm="Tr."
V:2 treble nm="Counter" snm="C."
V:3 treble-8 nm="Tenor" snm="T."
V:4 bass nm="Bass" snm="B."
V:1
 B2 d2 | d2 B2 | e2 EF | GA B2 | d2 d2 | d2 B2 | ^c2 A2 | A4 |"^May   we" z4 |"^all       go" z4 | %10
w: 1.~Lord, dis-|miss us|with thy *|bles- * sing,|Send it|down from|heav'n a-|bove;|||
"^home   a – prai – sing" z4 | z4 | B2 d2 | A2 Bc | d2 c2 | B4 |: d>c B>c | d2 d z | B<A G<A | %19
w: ||And re-|joi- cing *|in thy|love:|Fare- * well, *|breth- ren,|Fare- * well, *|
 B2 B z | d2 de | AB/c/ Be | d2 c2 | B4 :| %24
w: sis- ters,|Till we *|all * * * shall|meet a-|bove.|
V:2
 D2 D2 | G2 B2 | A2 BA | GF E2 | A2 A2 | B>G FG | A2 A2 | A4 |"^Make  us" z4 |"^hum – ble," z4 | %10
w: 2.~Par- don,|Lord, now|all our *|fol- * lies,|While to-|ge- * ther *|we have|been;|||
 E2 F2 | F2 F2 | G2 G2 | E2 FG | B2 A2 | B4 |: F<G B<G | A2 A z | G<A B<A | G2 G z | B2 FG | %21
w: make us|ho- ly,|Cleanse us|all from *|eve- ry|sin;|Fare- * well, *|breth- ren,|Fare- * well, *|sis- ters,|Till we *|
 (A2 B)c | G2 A2 | G4 :| %24
w: all * shall|meet a-|gain.|
V:3
 G2 A2 | B2 d2 | c2 BA | BA G2 | A2 A2 | B>g fd | e2 ^c2 | d4 | d2 d2 | B2 B2 | ^c2 A2 | F2 D2 | %12
w: 3.~May thy|pre- sence,|Lord. go *|with * us,|To each|one's * re- *|spec- tive|home;|And the|pre- sence|of our|Je- sus|
 d2 B2 | e2 dc | B2 A2 | G4 |: A<G F<G | A2 A z | d>c B>c | d2 d z | B2 AG | de/f/ gc | B2 A2 | %23
w: Rest up-|on us, *|eve- ry|one;|Fare- * well, *|breth- ren,|Fare- * well, *|sis- ters,|Till we *|all * * * shall|meet at|
 G4 :| %24
w: home.|
V:4
 G,2 D,2 | G,2 G,2 | A,2 G,F, | G,F, E,2 | D,2 D,2 | G,2 B,2 | A,2 A,,2 | D,4 | D,2 D,2 | G,2 G,2 | %10
 A,2 [A,,A,]2 | D,2 D,2 | G,2 G,2 | ^C2 B,A, | G,2 D,2 | G,,4 |: D,2 D,2 | D,2 D, z | G,2 G,2 | %19
 G,2 G, z | %20
"^________________________________________________________\nEdited by B. C. Johnston, 2016\n   1. Measure 3, \nTenor\n: first note changed from C# to C.\n   2. Measure 6, Tenor: last note changed from D# to D." G,2 F,E, | %21
 D,2 E,C, | D,2 D,2 | G,,4 :| %24

